brandFactory_export/3.Masa/Diamante_3Masa.svg

<?xml version="1.0" encoding="UTF-8"?>
<svg width="24px" height="24px" viewBox="0 0 24 24" version="1.1" xmlns="http://www.w3.org/2000/svg" xmlns:xlink="http://www.w3.org/1999/xlink">
    <title>3.Masa/Diamante_3Masa</title>
    <g id="Symbols" stroke="none" stroke-width="1" fill="none" fill-rule="evenodd">
        <g id="3.Masa/Diamante_3Masa" fill="#5CB615" fill-rule="nonzero">
            <path d="M12.8571429,0 L19.3277311,0 L17.3579832,6.17142857 L12.8571429,0 Z M18.3260504,6.84033613 L20.2386555,0.83697479 L23.6235294,6.84033613 L18.3260504,6.84033613 Z M17.9663866,7.97310924 L23.502521,7.97310924 L13.4453782,22.194958 L17.9663866,7.97310924 Z M6.8302521,7.97310924 L16.7966387,7.97310924 L11.8117647,23.6235294 L6.8302521,7.97310924 Z M7.17647059,6.84033613 L11.8117647,0.47394958 L16.4369748,6.84033613 L7.17647059,6.84033613 Z M4.29915966,0 L10.7563025,0 L6.25882353,6.17142857 L4.29915966,0 Z M0,6.84033613 L3.38823529,0.826890756 L5.30084034,6.84033613 L0,6.84033613 Z M0.124369748,7.97310924 L5.65714286,7.97310924 L10.1781513,22.1983193 L0.124369748,7.97310924 Z" id="Diamante_3Masa"></path>
        </g>
    </g>
</svg>

<svg width="24" height="24" viewBox="0 0 24 24" xmlns="http://www.w3.org/2000/svg"><path d="M12.857 0h6.47l-1.969 6.171L12.858 0zm5.47 6.84L20.238.837l3.385 6.003h-5.298zm-.36 1.133h5.536L13.445 22.195l4.521-14.222zm-11.137 0h9.967l-4.985 15.65L6.83 7.974zm.346-1.133L11.812.474l4.625 6.366h-9.26zM4.3 0h6.457L6.26 6.171 4.299 0zM0 6.84L3.388.827 5.301 6.84H0zm.124 1.133h5.533l4.521 14.225L.124 7.973z" fill="#5CB615" fill-rule="nonzero"/></svg>
